X:47
T:Green Grow The Rushes
R:Fling
S:Seamus Quinn, Fermanagh (fiddle) and Gary Hastings, flute (Belfast).
D:From RTE Broadcast, Christmas 1996
H:Eddie Duffy's version. ED was a flute player from Derrygonelly.
M:4/4
Z:Bernie Stocks
K:G
|: G2 (3ABc BGG2 | A2 (3Bcd ecAB | c2ec B2gB | AcBA GED2 :|
|: g2{a}g2 B2{d}B2 | gfga bgef | g2{a}g2 B2{d}B2 | AcBA GEE2 :|
<end>
<start>
